X: 1
T: Mazurka 
R: mazurka
M: 3/4
L: 1/8
K: Gmin
|: G2 GABc|d2 GdBd|c{g}c fedc| 1 BA GAFA :| 2 BA GABc|
|: d2 cBAG| G2 DF^GA| A2 cBAG | 1 F^G GABc :| 2 G2 GAFA|

Alternate
|: G2 GABc|d2 (3 GAB}cd|c{g}c fedc| 1 B2 GAFA :| 2 B2 GABc|

